src/pos-icons/google-hangouts.svg

<svg height="24" viewBox="0 0 24 24" width="24" xmlns="http://www.w3.org/2000/svg"><path d="m15 11-1 2h-1.5l1-2h-1.5v-3h3m-4 3-1 2h-1.5l1-2h-1.5v-3h3m.5-6a8.5 8.5 0 0 0 -8.5 8.5 8.5 8.5 0 0 0 8.5 8.5h.5v3.5c4.86-2.35 8-7.5 8-12 0-4.7-3.81-8.5-8.5-8.5z"/></svg>

<?xml version="1.0" encoding="UTF-8"?><!DOCTYPE svg PUBLIC "-//W3C//DTD SVG 1.1//EN" "http://www.w3.org/Graphics/SVG/1.1/DTD/svg11.dtd"><svg xmlns="http://www.w3.org/2000/svg" xmlns:xlink="http://www.w3.org/1999/xlink" version="1.1" id="mdi-google-hangouts" width="24" height="24" viewBox="0 0 24 24"><path d="M15,11L14,13H12.5L13.5,11H12V8H15M11,11L10,13H8.5L9.5,11H8V8H11M11.5,2A8.5,8.5 0 0,0 3,10.5A8.5,8.5 0 0,0 11.5,19H12V22.5C16.86,20.15 20,15 20,10.5C20,5.8 16.19,2 11.5,2Z" /></svg>
